lib/svgs/start-date.svg

<svg xmlns="http://www.w3.org/2000/svg" viewBox="0 0 20 20">
    <path fill="#000" fill-rule="evenodd" d="M15.294 3.412h-1.44V2.6a.6.6 0 1 0-1.2 0v.812H7.346V2.6a.6.6 0 1 0-1.2 0v.812h-1.44c-1.1 0-2 .9-2 2V16c0 1.1.9 2 2 2h10.588c1.1 0 2-.9 2-2V5.412c0-1.1-.9-2-2-2m0 13.388H4.706a.81.81 0 0 1-.8-.8V8.282h12.188V16a.81.81 0 0 1-.8.8M4.706 4.612h1.44v.426a.6.6 0 0 0 1.2 0v-.426h5.308v.426a.6.6 0 1 0 1.2 0v-.426h1.44c.434 0 .8.366.8.8v1.67H3.906v-1.67c0-.434.366-.8.8-.8M6.937 9.5H6.5a1 1 0 0 0-1 1v.437a1 1 0 0 0 1 1h.437a1 1 0 0 0 1-1V10.5a1 1 0 0 0-1-1"/>
</svg>

<svg xmlns="http://www.w3.org/2000/svg" viewBox="0 0 20 20">
    <path fill="#000" fill-rule="evenodd" d="M15.294,3.412 L13.854,3.412 L13.854,2.6 C13.854,2.269 13.586,2 13.254,2 C12.922,2 12.654,2.269 12.654,2.6 L12.654,3.412 L7.346,3.412 L7.346,2.6 C7.346,2.269 7.078,2 6.746,2 C6.415,2 6.146,2.269 6.146,2.6 L6.146,3.412 L4.706,3.412 C3.606,3.412 2.706,4.312 2.706,5.412 L2.706,16 C2.706,17.1 3.606,18 4.706,18 L15.294,18 C16.394,18 17.294,17.1 17.294,16 L17.294,5.412 C17.294,4.312 16.394,3.412 15.294,3.412 L15.294,3.412 Z M15.294,16.8 L4.706,16.8 C4.272,16.8 3.906,16.434 3.906,16 L3.906,8.282 L16.094,8.282 L16.094,16 C16.094,16.434 15.728,16.8 15.294,16.8 L15.294,16.8 Z M4.706,4.612 L6.146,4.612 L6.146,5.038 C6.146,5.369 6.415,5.638 6.746,5.638 C7.078,5.638 7.346,5.369 7.346,5.038 L7.346,4.612 L12.654,4.612 L12.654,5.038 C12.654,5.369 12.922,5.638 13.254,5.638 C13.586,5.638 13.854,5.369 13.854,5.038 L13.854,4.612 L15.294,4.612 C15.728,4.612 16.094,4.978 16.094,5.412 L16.094,7.082 L3.906,7.082 L3.906,5.412 C3.906,4.978 4.272,4.612 4.706,4.612 L4.706,4.612 Z M6.937,9.5 L6.5,9.5 C5.947,9.5 5.5,9.948 5.5,10.5 L5.5,10.937 C5.5,11.49 5.947,11.937 6.5,11.937 L6.937,11.937 C7.489,11.937 7.937,11.49 7.937,10.937 L7.937,10.5 C7.937,9.948 7.489,9.5 6.937,9.5 L6.937,9.5 Z"/>
</svg>
